X:527
T: WENN ICH EIN KLEINS WALDVOEGLEIN WAER
N: E0512
O: Europa, Mitteleuropa, Deutschland, Schlesien, Neisse, Waltorf
R: Liebes - Lied
M: 3/8
L: 1/16
K: G
 | d2dBGB | B2AGA2 |
A2FDc2 | c2BAB2 |
ddedc2 | B2A2z2 |
ABc2A2 | Bed3B |
ABc2A2 | Bed3B |
B2A3G | G4z2

@@@ Tune index: 4177
